X:1
T:Euphonic Sounds
T:Euphonic  Sounds.
T:By SCOTT JOPLIN, Composer of “Maple Leaf Rag,” “Sugar Cane Rag,” “Wall Street Rag” and “Pineapple Rag,” etc.
T:A SYNCOPATED TWO STEP.
T:  NOTE. Do not play this piece fast. It is never right to play Ragtime fast. Composer.
T:Public Domain
T:Public Domain
T:Public Domain
T:Public Domain
T:Public Domain
T:Public Domain
C:Scott Joplin
Z:Public Domain
%%score { ( 1 4 ) | ( 2 3 ) }
L:1/8
Q:1/4=70
M:2/4
K:Bb
V:1 treble nm="Piano."
V:4 treble 
V:2 bass 
V:3 bass 
V:1
"^Slow March time"!mf! F2 d(F/^F/ | G2) B(A/G/) | (E/F/G) (C/D/E/=E/) | F z !^![fac'f'] z |: %4
!mf! z/ [dfbd'][Bdb]/- ([Bdb]/[Gg]/[Ff]/[Dd]/) | (((([CFAc]2 [Fcef]2)))) | %6
 z/ [dfbd'][Bdb]/- ([Bdb]/[Gg]/[Ff]/[Dd]/) | (((([CFAc]2 [Fcef]2)))) | z"^R.H." a/a/- a/^f/g/a/ | %9
 b/bb/- (b/a/b/=b/) | c'/!<(!c'c'/- c'/=b/c'/!<)!^c'/ | d' z!>(! z2!>)! | %12
!mf! z/ [dfbd'][Bdb]/- ([Bdb]/[Gg]/[Ff]/[Dd]/) | (((([CFAc]2 [Fcef]2)))) | %14
 z/ [dfbd'][Bdb]/- ([Bdb]/[Gg]/[Ff]/[Dd]/) | (((([CFAc]2 [Fcef]2)))) | %16
 (((([_GBe_g]2 [FBdf]))))[fbd'f'] |"^R.H." (((([_gbe'_g']2 [fbd'f'])))) z | %18
 [=EB]>[_EAc]- (c/d/c) |1 Bb/d'/ !^![ff'] z :|2 [DB]F/E/ DC |:!mf! B,/C/D F^F | ^F/^G/^A/=B/ ^cd | %23
 =Bd/=e/ (d/^f/=b/d'/) | =Bd/=e/ (d/^f/=b/d'/) |!f! [d_a=bd'][=fbd'=f'] [_ad'f'_a'][=Bfab] | %26
 ([c_egc']/[dfd']/[ege']/[cec']/-) [cec'][^cg_b^c'] |!p! [d_a=bd'][fbd'f'] [_ad'f'_a'][=Bfab] | %28
 ([cegc']/[dfd']/[ege']/[cec']/-) [cec'][^cga^c'] | %29
"_cresc." [d^fad']/[_efa_e'][dfad']/- [dfad']/[=e=e']/[^fc'd'^f'] | %30
 [^fbd'^f']/[gbd'g'][gbd'g']/- [gbd'g']/[aa']/[bd'g'b'] | %31
 [bd'^f'b']/[ad'f'a'][gd'g']/- [gd'g']/[gg']/[_g_g'] | %32
!<(! ([_g_g']/[ff']/[gg']/!<)![ff']/!ff! [gg']/!>(![ff']/[gg']/[ff']/)!>)! | %33
!pp! ([_g_g']/[ff']/[ee']/[_Ac_a]/-) [Aca]/[=Gc=g]/[_Gc_g] | [_G_d_g]/[F_Adf][FBdf]/- [FBdf]2 |1 %35
!<(! [EBe][=DB=d][EAc][D^G=B]!<)! |!<(! [EAc]F/E/ DC!<)! :|2 %37
!<(! ([_EB_e]/[=D=d]/[Ee]/[=EBc=e]/-) ([EBce]/!<)![^D^d]/[EBce]) | !^![FAcf] z !^![fac'f'] z || %39
!mf! z/ [dfbd'][Bdb]/- ([Bdb]/[Gg]/[Ff]/[Dd]/) | (((([CFAc]2 [Fcef]2)))) | %41
 z/ [dfbd'][Bdb]/- ([Bdb]/[Gg]/[Ff]/[Dd]/) | (((([CFAc]2 [Fcef]2)))) | z"^R.H." a/a/- (a/^f/g/a/) | %44
 b/bb/- (b/a/b/=b/) |!<(! c'/c'c'/- (c'/=b/!<)!c'/^c'/) | d' z!>(! z2!>)! | %47
!mf! z/ [dfbd'][Bdb]/- ([Bdb]/[Gg]/[Ff]/[Dd]/) | (((([CFAc]2 [Fcef]2)))) | %49
 z/ [dfbd'][Bdb]/- ([Bdb]/[Gg]/[Ff]/[Dd]/) | (((([CFAc]2 [Fcef]2)))) | %51
 (((([_GBe_g]2 [FBdf]))))[fbd'f'] |"^R.H." (((([_gbe'_g']2 [fbd'f'])))) z | [=EB]>[_EAc]- (c/d/c) | %54
 [DB]F/G/ AA |:[K:Dmin]!p! z/ A/[df]/A/ d/[fa]d/ | ([ac']/[gb]/d/[gb]/-) ([gb]/d/G) | %57
 z/ A/[df]/A/ d/[fa]d/ | ([ac']/[gb]/d/[gb]/-) ([gb]/^c/d/^d/) | (e/^d/e/c/ f/g/a/c'/) | %60
!8va(! (e'/^d'/e'/c'/ f'/g'/a'/c''/) | _d''/f''/_a'/f'/- f'/_d'/_a/f/!8va)! | %62
"^loco" _d/f/_A/F/- F/_D/[I:staff +1]_A,/F,/ |"_R.H." _D, _A,2 _D |[I:staff -1] F _A2 [FA] | %65
 [F=A][FA]/[Ec]/- (c/d/G) | FF/G/ _A"_R.H."[I:staff +1]_A, | _D, _A,2 _D |[I:staff -1] F _A2 [FA] | %69
 [F=A][FA]/[Ec]/- (c/d/G) |1 FF/G/ AA :|2 Fa/c'/ [ff'] z || %72
[K:Bb]!f! z/ [dfbd'][Bdb]/- ([Bdb]/[Gg]/[Ff]/[Dd]/) | (((([CFAc]2 [Fcef]2)))) | %74
 z/ [dfbd'][Bdb]/- ([Bdb]/[Gg]/[Ff]/[Dd]/) | (((([CFAc]2 [Fcef]2)))) | z"^R.H." a/a/- (a/^f/g/a/) | %77
 b/bb/- b/a/b/=b/ | c'/!<(!c'c'/- (c'/=b/c'/!<)!^c'/) | d' z!>(! z2!>)! | %80
!f! z/ [dfbd'][Bdb]/- ([Bdb]/[Gg]/[Ff]/[Dd]/) | (((([CFAc]2 [Fcef]2)))) | %82
 z/ [dfbd'][Bdb]/- ([Bdb]/[Gg]/[Ff]/[Dd]/) | (((([CFAc]2 [Fcef]2)))) | %84
 (((([_GBe_g]2 [FBdf]))))[fbd'f'] |"^R.H." (((([_gbe'_g']2 [fbd'f'])))) z | [=EB]>[_EAc]- (c/d/c) | %87
 [DB]c/d/ ed/e/ |"^R.H." fe/f/ gb/g/ | fg/f/ dG | [=EB]>[_EAc]- (c/d/c) | %91
 [DB] z !^![Bdfb] z!fine! |] %92
V:2
 F,2 D(F,/^F,/ | G,2) B,(A,/G,/) | (E,/F,/G,) (C,/D,/E,/=E,/) | F, z z/ .F,,/.G,,/.A,,/ |: %4
 B,,[B,DF] (^C,D,/F,/) | (E,/D,/C,/B,,/ A,,/F,,/G,,/A,,/) | B,,[B,DF] (^C,D,/F,/) | %7
 (E,/D,/C,/B,,/ A,,/G,,/F,,) | z"^L.H."[I:staff -1] [^Fce]/[Fce]/- [Fce][Fce] | %9
 [GBd]>[GBd]- [GBd][GBd] | [GAe]>[GAe]- [GAe][GAe] | %11
 [^FAd][I:staff +1]!^![D,,D,]- [D,,D,]/.=F,,/.G,,/.A,,/ | B,,[B,DF] (^C,D,/F,/) | %13
 (E,/D,/C,/B,,/ A,,/F,,/G,,/A,,/) | B,,[B,DF] (^C,D,/F,/) | (E,/D,/C,/B,,/ A,,/G,,/F,,) | %16
 (E,,/_G,,/B,,/E,/ D,/F,/B,/D/) |"^L.H."[I:staff -1] (E/_G/B/e/ d)[I:staff +1] z | %18
 (C,/=E,/G,/F,/-) F,[F,,F,] |1 [B,,F,]2 z/ .F,,/.G,,/.A,,/ :|2 [B,,F,]F,/G,/ F,E, |: %21
 D,/E,/F, F,^F, | ^F,/^G,/^A,/=B,/ ^CD | D^F/G/ (F/D/=B,/^F,/) | D^F/G/ (F/D/=B,/^F,/) | %25
 =F,/G,/_A, =B,,/C,/D, | _E,C, E,=E, | F,/G,/_A, =B,,/C,/D, | E,C, E,E, | %29
 !>!D,!>!C, !>!_B,,!>!A,, | !>!G,,[B,DG] D,[B,DG] | D/CB,/- B,/G/_G | z4 | %33
 E,[_G,_A,C] _A,,[G,A,C] | _D,[F,_A,_D] z/ D,/E,/F,/ |1 [_G,,_G,][F,,F,][F,,F,][F,,F,] | %36
 [F,,F,]F,/G,/ F,E, :|2 [_G,,_G,]2 [G,,G,][G,,G,] | !^![F,,F,] z z/ .F,,/.G,,/.A,,/ || %39
 B,,[B,DF] (^C,D,/F,/) | (E,/D,/C,/B,,/ A,,/F,,/G,,/A,,/) | B,,[B,DF] (^C,D,/F,/) | %42
 (E,/D,/C,/B,,/ A,,/G,,/F,,) | z"^L.H."[I:staff -1] [^Fce]/[Fce]/- [Fce][Fce] | %44
 [GBd]>[GBd]- [GBd][GBd] | [GAe]>[GAe]- [GAe][GAe] | %46
 [^FAd][I:staff +1]!^![D,,D,]- [D,,D,]/.=F,,/.G,,/.A,,/ | B,,[B,DF] (^C,D,/F,/) | %48
 (E,/D,/C,/B,,/ A,,/F,,/G,,/A,,/) | B,,[B,DF] (^C,D,/F,/) | (E,/D,/C,/B,,/ A,,/G,,/F,,) | %51
 (E,,/_G,,/B,,/E,/ D,/F,/B,/D/) |"^L.H."[I:staff -1] (E/_G/B/e/ d)[I:staff +1] z | %53
 (C,/=E,/G,/F,/-) F,[F,,F,] | [B,,F,]F,/G,/ A,A, |:[K:Dmin] [D,F,A,][D,F,A,] [D,F,A,][D,F,A,] | %56
 [D,G,B,][D,G,B,] [D,G,B,][D,G,B,] | [D,F,A,][D,F,A,] [D,F,A,][D,F,A,] | %58
 [D,G,B,][D,G,B,] [D,G,B,][D,G,B,] | [C,G,B,][C,G,B,] [C,F,A,] z |[K:treble] [CGB][CGB] [CFA] z | %61
 [f_a] z [fa] z | [F_A] z[K:bass] [F,_A,] z |"_L.H." _D,, _A,,2 _D, | F, _A,2 [_D,F,A,_D] | %65
 [C,F,=A,C][C,F,A,C] [C,G,B,][C,G,B,] | [F,A,]F,/G,/ _A,"_L.H."_A,, | _D,, _A,,2 _D, | %68
 F, _A,2 [_D,F,A,_D] | [C,F,=A,C][C,F,A,C] [C,G,B,][C,G,B,] |1 [F,A,]F,/G,/ A,A, :|2 %71
 [F,A,] z z/ .F,,/.G,,/.A,,/ ||[K:Bb] B,,[B,DF] (^C,D,/F,/) | (E,/D,/C,/B,,/ A,,/F,,/G,,/A,,/) | %74
 B,,[B,DF] (^C,D,/F,/) | (E,/D,/C,/B,,/ A,,/G,,/F,,) | %76
 z"^L.H."[I:staff -1] [^Fce]/[Fce]/- [Fce][Fce] | [GBd]>[GBd]- [GBd][GBd] | %78
 [GAe]>[GAe]- [GAe][GAe] | [^FAd][I:staff +1]!^![D,,D,]- [D,,D,]/.=F,,/.G,,/.A,,/ | %80
 B,,[B,DF] (^C,D,/F,/) | (E,/D,/C,/B,,/ A,,/F,,/G,,/A,,/) | B,,[B,DF] (^C,D,/F,/) | %83
 (E,/D,/C,/B,,/ A,,/G,,/F,,) | (E,,/_G,,/B,,/E,/ D,/F,/B,/D/) | %85
"^L.H."[I:staff -1] (E/_G/B/e/ d)[I:staff +1] z | (C,/=E,/G,/F,/-) F,[F,,F,] | [B,,F,]C/D/ ED/E/ | %88
"^L.H."[I:staff -1] FE/F/ GB/G/ | FG/F/ D[I:staff +1]G, | (C,/=E,/G,/F,/-) F,[F,,F,] | %91
 [B,,F,] z !^![B,,,B,,] z |] %92
V:3
 x4 | x4 | x4 | x4 |: !>!B,,2 z2 | x4 | B,,2 z2 | x4 | x4 | x4 | x4 | x4 | !>!B,,2 z2 | x4 | %14
 B,,2 z2 | x4 | x4 | x4 | x4 |1 x4 :|2 x4 |: x4 | x4 | x4 | x4 | x4 | x4 | x4 | x4 | x4 | x4 | x4 | %32
 x4 | E,2 _A,,2 | _D,2 B,,2 |1 x4 | x4 :|2 x4 | x4 || !>!B,,2 z2 | x4 | B,,2 z2 | x4 | x4 | x4 | %45
 x4 | x4 | !>!B,,2 z2 | x4 | B,,2 z2 | x4 | x4 | x4 | x4 | x4 |:[K:Dmin] x4 | x4 | x4 | x4 | x4 | %60
[K:treble] x4 | x4 | x2[K:bass] x2 | x4 | x4 | x4 | x4 | x4 | x4 | x4 |1 x4 :|2 x4 || %72
[K:Bb] !>!B,,2 z2 | x4 | B,,2 z2 | x4 | x4 | x4 | x4 | x4 | !>!B,,2 z2 | x4 | B,,2 z2 | x4 | x4 | %85
 x4 | x4 | x4 | x4 | x4 | x4 | x4 |] %92
V:4
 x4 | x4 | x4 | x4 |: x4 | x4 | x4 | x4 | x4 | x4 | x4 | x4 | x4 | x4 | x4 | x4 | x4 | x4 | %18
 x2 [EA][EA] |1 D2 x x :|2 x4 |: x4 | x4 | x4 | x4 | x4 | x4 | x4 | x4 | x4 | x4 | x4 | x4 | x4 | %34
 x4 |1 x4 | x4 :|2 x4 | x4 || x4 | x4 | x4 | x4 | x4 | x4 | x4 | x4 | x4 | x4 | x4 | x4 | x4 | x4 | %53
 x2 [EA][EA] | x4 |:[K:Dmin] x4 | x4 | x4 | x4 | x4 |!8va(! x4 | x4!8va)! | x4 | x4 | x4 | x2 EE | %66
 x4 | x4 | x4 | x2 EE |1 x4 :|2 x4 ||[K:Bb] x4 | x4 | x4 | x4 | x4 | x4 | x4 | x4 | x4 | x4 | x4 | %83
 x4 | x4 | x4 | x2 [EA][EA] | x4 | x4 | x4 | x2 [EA][EA] | x4 |] %92

